icons/log.svg

<svg width="16" height="16" viewBox="0 0 16 16" fill="none" xmlns="http://www.w3.org/2000/svg">
<path d="M7 5.5C7 4.94772 7.44772 4.5 8 4.5V4.5C8.55228 4.5 9 4.94772 9 5.5V7.5C9 8.05228 8.55228 8.5 8 8.5V8.5C7.44772 8.5 7 8.05228 7 7.5V5.5Z" fill="#CF5757"/>
<path d="M9 10.5C9 11.0523 8.55228 11.5 8 11.5C7.44772 11.5 7 11.0523 7 10.5C7 9.94772 7.44772 9.5 8 9.5C8.55228 9.5 9 9.94772 9 10.5Z" fill="#CF5757"/>
<path fill-rule="evenodd" clip-rule="evenodd" d="M9.79 2.29C9.60374 2.10526 9.35234 2.0011 9.09 2H4C3.73478 2 3.48043 2.10536 3.29289 2.29289C3.10536 2.48043 3 2.73478 3 3V13C3 13.2652 3.10536 13.5196 3.29289 13.7071C3.48043 13.8946 3.73478 14 4 14H12C12.2652 14 12.5196 13.8946 12.7071 13.7071C12.8946 13.5196 13 13.2652 13 13V5.91C12.9962 5.64623 12.8884 5.39463 12.7 5.21C12 4.53 10.47 3 9.79 2.29ZM11.5 6.13493C10.8005 5.45045 9.56952 4.21913 8.87291 3.5H4.5V12.5H11.5V6.13493Z" fill="#CF5757"/>
</svg>

<svg xmlns="http://www.w3.org/2000/svg" width="16" height="16" fill="none" viewBox="0 0 16 16"><path fill="#CF5757" d="M7 5.5a1 1 0 0 1 2 0v2a1 1 0 0 1-2 0zm2 5a1 1 0 1 1-2 0 1 1 0 0 1 2 0"/><path fill="#CF5757" fill-rule="evenodd" d="M9.79 2.29a1 1 0 0 0-.7-.29H4a1 1 0 0 0-1 1v10a1 1 0 0 0 1 1h8a1 1 0 0 0 1-1V5.91a1 1 0 0 0-.3-.7C12 4.53 10.47 3 9.79 2.29m1.71 3.845C10.8 5.45 9.57 4.219 8.873 3.5H4.5v9h7z" clip-rule="evenodd"/></svg>
